X: 1
T: Margo's Way
C: James Gray
R: strathspey
B: Alex & James Gray "Tweeddale Collection" v.4 p.40 #2
N: Tune for Buchan's Country
Z: 2017 John Chambers <jc:trillian.mit.edu>
S: PDF via strathspey.org message
M: 4/4
L: 1/16
K: G
D2 |\
"G"G4 D3B "/b"d3B GB3 | "Am"Ec3 c3A "D"G3F E3D |\
"G"B,3D G3B "/b"d3B GB3 | "Am"cBAG "D"Fd3 "G"BG3 G2 :|
ga |\
"G"b3d gb3 "D"a3g fd3 | "C"e3G c3e "D"d2f2g2a2 |\
"G"b3d gb3 "Bm"a3g fB3 | "C(Am)"c3e "D"dcBA "G"BG3 G2 ||
ga |\
"G"bagf g3d "Am"edcB "D7"c3A | "Em"B3G "Am"Ec3 "D"FD3 D3C |\
"G"B,3D G3B "/b"dcBA G3B | "Am"c3A "D"F3d "G"BG3 G2 |]
